X:1
T:Saved by the Blood of the Lamb
T:Saved by the Blood of the Lamb
T:Eliza Edmunds Hewitt
T:Eliza Edmunds Hewitt, 1899
T:Public Domain Courtesy of the Cyber Hymnal™
T:Public Domain Courtesy of the Cyber Hymnal™
C:Eliza Edmunds Hewitt
Z:Public Domain
Z:Courtesy of the Cyber Hymnal™
%%score ( 1 2 ) ( 3 4 )
L:1/8
Q:1/4=92
M:4/4
K:F
V:1 treble 
V:2 treble 
V:3 bass 
V:4 bass 
V:1
 [CF][CG] | [FA][FA][FA][CG] [CG][CF][CF][CG] | [FA][CF][DF][B,D] [A,C]4 | %3
w: 1.~Praise the|Lord for His sal- va- tion! Sing His|mer- cies full and free,|
w: 2.~There is|now no con- dem- na- tion, For He|takes my sins a- way;|
w: 3.~Out of|ev- ery tribe and na- tion, There shall|come a might- y throng,|
w: 4.~In the|house of ma- ny man- sions, There’s a|home for you and me,|
 [DF]2 [EG]>[EG] [FA]2 [DG]>[DF] | [EG]6 [CF][CG] | [FA][FA][FA][CG] [CG][CF][CF][CG] | %6
w: Saved by the blood of the|Lamb; ’Tis the|Christ- ian’s shout of tri- umph, ’Tis the|
w: Saved by the blood of the|Lamb; In the|com- fort of His Spir- it, I am|
w: Saved by the blood of the|Lamb; When be-|fore the throne they ga- ther, They shall|
w: Saved by the blood of the|Lamb; There we|too shall join the chor- us In love’s|
 [FA][CF][DF][B,D] [A,C]4 | F2 F>F [FA]2 [EG]>[EG] | [CF]6 z2 ||"^Refrain" [Fc]4 [FA]2 [Fc]>[Ec] | %10
w: con- trite sin- ner’s plea,|Saved by the blood of the|Lamb.||
w: walk- ing day by day,|Saved by the blood of the|Lamb.|Saved! saved by the|
w: lift the joy- ful song,|Saved by the blood of the|Lamb.||
w: ev- er- last- ing key,|Saved by the blood of the|Lamb.||
 [Ec]2 [GB]>[^FA] [GB]4 | [EB]4 [EG]2 [GB]>[GB] | [GB]2 [FA]>[F^G] [FA]3 [Fc] | %13
w: |||
w: blood of the Lamb;|Saved, saved by the|blood of the Lamb; He|
w: |||
w: |||
 [Fc]2 [Fc][Fc] [Fc]2 [FA]>[FA] | [FB][FB][Fc][Fc] !fermata![Fd]4 | [Fc]2 [FA][Fc] (cB) [EA]>[EG] | %16
w: |||
w: died in my place, And He|keeps me by His grace,|Saved by the blood * of the|
w: |||
w: |||
 [CF]4 |] %17
w: |
w: Lamb.|
w: |
w: |
V:2
 x2 | x8 | x8 | x8 | x8 | x8 | x8 | F2 F>F x4 | x8 || x8 | x8 | x8 | x8 | x8 | x8 | x4 E2 x2 | %16
 x4 |] %17
V:3
 [F,A,][F,B,] | [F,C][F,C][F,C][F,B,] [F,B,][F,A,][F,A,][F,B,] | [F,C][F,A,][B,,B,][D,F,] F,4 | %3
w: ~ ~|~ ~ ~ ~ ~ ~ ~ ~|~ ~ ~ ~ ~|
 [D,A,]2 [D,A,]>[D,A,] [G,,=B,]2 [G,,B,]>[G,,B,] | [C,C]6 [F,A,][F,B,] | %5
w: ~ ~ ~ ~ ~ ~|~ ~ ~|
 [F,C][F,C][F,C][F,B,] [F,B,][F,A,][F,A,][F,B,] | [F,C][F,A,][B,,B,][D,F,] F,4 | %7
w: ~ ~ ~ ~ ~ ~ ~ ~|~ ~ ~ ~ ~|
 [D,A,]2 [D,A,]>[D,A,] [C,C]2 [C,B,]>[C,B,] | [F,A,]6 z2 || [F,A,]2 [F,A,]2 [F,C]2 [F,A,]>[F,A,] | %10
w: ~ ~ ~ ~ ~ ~|~|Saved, I’m ~ ~ ~|
 [C,G,]2 [C,C]>[C,C] [C,C]4 | [C,G,]2 [C,G,]2 [C,C]2 [C,C]>[C,C] | %12
w: ~ ~ ~ ~|Saved, I’m * * *|
 [F,C]2 [F,C]>[F,=B,] [F,C]3 [F,A,] | [F,A,]2 [F,A,][F,A,] [F,A,]2 [_E,C]>[F,C] | %14
w: ||
 [E,B,][D,B,][C,A,][C,A,] [B,,B,]4 | [C,A,]2 [C,C][C,A,] [C,G,]2 [C,C]>[C,B,] | [F,A,]4 |] %17
w: |||
V:4
 x2 | x8 | x4 F,4 | x8 | x8 | x8 | x4 F,4 | x8 | x8 || x8 | x8 | x8 | x8 | x8 | x8 | x8 | x4 |] %17

